X: 1
T: Imperial Quick Step March, The
M: 4/4
L: 1/8
R: barndance
K: Dmaj
|: A2 | 
d2 d2 f3 d | e2 e2 g3 e | d2 d2 f3 d | e>dcB AGFE | 
d2 Ad fa/f/ ed | e2 Ae g2 fe | f2 ed Acec | dAFA D2 :|
|: d2 | 
f2 f2 a3 f | a2 f2 f2 d2 | e2 Ae g3 e | g2 e2 dcBA | 
f2 Af ab/a/ fg | a2 f2 f2 ed | e>fge dcBA | d2 dc d2 :| 
|: A/B/c | 
d2 ad c2 ac | GB B/c/d A4 | B2 B2 c2 c2 | d>fab a2 g/f/e | 
dAfd cAec | BGdB AB/A/ FA | B3 G Acec | d2 A/B/c d2 :|
|: e/f/g | 
a2 f2 f3 a | g2 e2 e3 g | f2 d2 d3 f | e>dcB A2 fg | 
ab/a/ f2 fgab | ga/g/ e2 e3 g | f2 d2 cdec | d2 d/d/d d2 :|
